app/images/icons/database.svg

<svg width="22" height="24" viewBox="0 0 22 24" fill="none" xmlns="http://www.w3.org/2000/svg">
<path d="M21.5 3.75V6C21.4375 7.0625 20.4062 7.95312 18.4062 8.67188C16.4375 9.35938 13.9688 9.71875 11 9.75C8.03125 9.71875 5.5625 9.35938 3.59375 8.67188C1.59375 7.95312 0.5625 7.0625 0.5 6V3.75C0.5625 2.6875 1.59375 1.79688 3.59375 1.07812C5.5625 0.390625 8.03125 0.03125 11 0C13.9688 0.03125 16.4375 0.390625 18.4062 1.07812C20.4062 1.79688 21.4375 2.6875 21.5 3.75ZM18.9219 10.0781C19.9219 9.73438 20.7812 9.28125 21.5 8.71875V13.5C21.4375 14.5625 20.4062 15.4531 18.4062 16.1719C16.4375 16.8594 13.9688 17.2188 11 17.25C8.03125 17.2188 5.5625 16.8594 3.59375 16.1719C1.59375 15.4531 0.5625 14.5625 0.5 13.5V8.71875C1.21875 9.28125 2.07812 9.73438 3.07812 10.0781C5.26562 10.8281 7.90625 11.2188 11 11.25C14.0938 11.2188 16.7344 10.8281 18.9219 10.0781ZM0.5 16.2188C1.21875 16.7812 2.07812 17.2344 3.07812 17.5781C5.26562 18.3281 7.90625 18.7188 11 18.75C14.0938 18.7188 16.7344 18.3281 18.9219 17.5781C19.9219 17.2344 20.7812 16.7812 21.5 16.2188V20.25C21.4375 21.3125 20.4062 22.2031 18.4062 22.9219C16.4375 23.6094 13.9688 23.9688 11 24C8.03125 23.9688 5.5625 23.6094 3.59375 22.9219C1.59375 22.2031 0.5625 21.3125 0.5 20.25V16.2188Z" fill="#1D53C0"/>
</svg>

<svg width="22" height="24" fill="none" xmlns="http://www.w3.org/2000/svg"><path d="M21.5 3.75V6c-.063 1.063-1.094 1.953-3.094 2.672C16.438 9.359 13.97 9.719 11 9.75c-2.969-.031-5.438-.39-7.406-1.078C1.594 7.953.563 7.062.5 6V3.75c.063-1.063 1.094-1.953 3.094-2.672C5.563.391 8.03.031 11 0c2.969.031 5.438.39 7.406 1.078 2 .719 3.032 1.61 3.094 2.672zm-2.578 6.328c1-.344 1.86-.797 2.578-1.36V13.5c-.063 1.063-1.094 1.953-3.094 2.672-1.968.687-4.437 1.047-7.406 1.078-2.969-.031-5.438-.39-7.406-1.078-2-.719-3.031-1.61-3.094-2.672V8.719c.719.562 1.578 1.015 2.578 1.36 2.188.75 4.828 1.14 7.922 1.171 3.094-.031 5.734-.422 7.922-1.172zM.5 16.218c.719.563 1.578 1.016 2.578 1.36 2.188.75 4.828 1.14 7.922 1.172 3.094-.031 5.734-.422 7.922-1.172 1-.344 1.86-.797 2.578-1.36v4.032c-.063 1.063-1.094 1.953-3.094 2.672C16.438 23.609 13.97 23.969 11 24c-2.969-.031-5.438-.39-7.406-1.078-2-.719-3.031-1.61-3.094-2.672v-4.031z" fill="#1D53C0"/></svg>
